assets/ai/ai-arxiv-square.svg

<svg xmlns="http://www.w3.org/2000/svg" width="100%" height="100%" viewBox="-75.52 -43.52 599.04 599.04"><path d="M 48 32 C 21.5 32 0 53.5 0 80 L 0 432 C 0 458.5 21.5 480 48 480 L 400 480 C 426.5 480 448 458.5 448 432 L 448 80 C 448 53.5 426.5 32 400 32 L 48 32 z M 107.12695 96.003906 C 107.90003 96.012162 108.67128 96.033145 109.43945 96.0625 C 117.89007 96.33594 126.60188 100.50252 128.75 105.54102 C 131.27655 111.47858 128.42449 115.30701 126.09375 119.53906 C 123.09907 124.98188 124.55782 130.42494 128.45117 134.95703 C 132.6566 139.89159 142.99347 150.50281 148.87891 156.78125 C 169.77736 140.93334 195.75409 131.41797 224.00977 131.41797 C 252.25086 131.41797 278.22834 140.93426 299.11328 156.76758 C 304.9987 150.50483 315.33756 139.89163 319.54297 134.95703 C 323.43634 130.42494 324.90847 124.98403 321.90039 119.55469 C 319.57104 115.30953 316.7173 111.48017 319.25586 105.54297 C 321.39196 100.51762 330.10207 96.338 338.55273 96.064453 C 344.69774 95.843147 351.05286 96.117425 356.59961 99.554688 C 363.93016 104.14 367.01565 110.89513 367.17188 119.48828 C 367.28929 125.21877 364.65948 126.25893 371.05273 127.37891 C 379.02209 128.75884 385.36154 132.31295 386.91211 137.84766 C 388.46117 143.40786 387.68116 147.78294 385.55859 152.74414 C 382.0943 159.17604 379.08662 160.46465 373.47461 162.19531 C 368.64391 163.6671 360.13996 162.99079 352.83594 160.13867 C 351.16911 159.48791 349.65843 158.43248 348.07031 157.58594 C 343.33038 155.03386 340.4799 155.53007 336.87305 159.38477 C 334.80225 161.62365 328.3191 167.48104 319.40039 175.93164 C 337.60419 197.59827 348.5918 225.50153 348.5918 255.99609 C 348.5918 286.50377 337.60277 314.39393 319.40039 336.06055 C 328.31869 344.52318 334.81589 350.39656 336.88672 352.62305 C 340.4935 356.47628 343.34549 356.9722 348.08398 354.43359 C 349.67316 353.575 351.1831 352.51906 352.84961 351.86719 C 360.16671 349.01653 368.65566 348.34012 373.48633 349.79883 C 379.11175 351.54259 382.10646 352.83176 385.57031 359.26367 C 387.69182 364.22528 388.48713 368.59832 386.92969 374.1582 C 385.3806 379.69143 379.03876 383.24753 371.08398 384.62891 C 364.67722 385.74747 367.30764 386.79014 367.19141 392.51953 C 367.03384 401.11268 363.94793 407.86926 356.63086 412.45312 C 351.08263 415.89055 344.71571 416.16478 338.57031 415.94336 C 330.11974 415.68304 321.41042 411.49127 319.25977 406.46484 C 316.73468 400.53967 319.57214 396.68514 321.91602 392.45312 C 324.91068 387.03582 323.45387 381.59294 319.56055 377.04883 C 315.35547 372.12766 305.00259 361.50245 299.11719 355.22656 C 278.23187 371.07296 252.26827 380.5918 224.01367 380.5918 C 195.75799 380.5918 169.78127 371.07296 148.88281 355.22656 C 142.99738 361.50245 132.6605 372.12735 128.45508 377.04883 C 124.56172 381.59294 123.10301 387.03582 126.09766 392.45312 C 128.42842 396.68513 131.28046 400.53967 128.75391 406.46484 C 126.60582 411.49017 117.89395 415.68351 109.44336 415.94336 C 103.29801 416.16462 96.931487 415.89045 91.384766 412.45312 C 84.06619 407.86925 80.966644 401.11268 80.810547 392.51953 C 80.706631 386.79014 83.338386 385.74747 76.931641 384.62891 C 68.962282 383.24753 62.632931 379.69143 61.070312 374.1582 C 59.521242 368.59948 60.303195 364.2249 62.425781 359.26367 C 65.888575 352.83178 68.895853 351.54104 74.507812 349.79688 C 79.338519 348.33819 87.841091 349.01654 95.158203 351.86719 C 96.825055 352.5176 98.335739 353.57156 99.923828 354.43164 C 104.66263 356.97021 107.50118 356.4763 111.12109 352.62305 C 113.20392 350.39659 119.68902 344.52335 128.5957 336.07422 C 110.40537 314.41998 99.402344 286.50378 99.402344 255.99609 C 99.402344 225.50151 110.3905 197.59825 128.5918 175.93164 C 119.68658 167.48105 113.20164 161.6226 111.11914 159.36914 C 107.50033 155.51586 104.66176 155.03191 99.921875 157.58398 C 98.333751 158.4174 96.822746 159.47284 95.15625 160.13672 C 87.838757 162.97535 79.33654 163.66516 74.505859 162.19336 C 68.893874 160.46271 65.886595 159.16044 62.423828 152.72852 C 60.30085 147.78045 59.518894 143.39383 61.068359 137.83398 C 62.630946 132.31279 68.95983 128.74487 76.927734 127.37695 C 83.334148 126.25698 80.702703 125.21516 80.806641 119.47266 C 80.963768 110.89299 84.063747 104.12346 91.380859 99.552734 C 96.234244 96.533353 101.71538 95.946113 107.12695 96.003906 z M 224.00977 139.12305 C 159.55712 139.12305 107.12305 191.55659 107.12305 255.99609 C 107.12305 320.44872 159.55712 372.88477 224.00977 372.88477 C 288.43617 372.88477 340.88281 320.44872 340.88281 255.99609 C 340.88281 191.55659 288.43581 139.12305 224.00977 139.12305 z M 189.40039 193.14648 C 195.43347 193.14648 200.32422 203.65367 200.32422 216.61523 C 200.32422 229.57675 195.43347 240.08398 189.40039 240.08398 C 183.36732 240.08398 178.47656 229.57675 178.47656 216.61523 C 178.47656 203.65367 183.36732 193.14648 189.40039 193.14648 z M 258.61914 193.14648 C 264.64458 193.14648 269.5293 203.65367 269.5293 216.61523 C 269.5293 229.57675 264.64458 240.08398 258.61914 240.08398 C 252.59373 240.08398 247.70898 229.57675 247.70898 216.61523 C 247.70898 203.65367 252.59373 193.14648 258.61914 193.14648 z M 160.15625 267.83203 L 171.73047 267.83203 C 171.73047 273.91323 169.45209 279.48612 165.80664 283.93945 C 169.74012 293.80864 193.30573 306.15234 223.99609 306.15234 C 254.69847 306.15234 278.2521 293.80864 282.18555 283.93945 C 278.52554 279.48612 276.27539 273.91323 276.27539 267.83203 L 287.83789 267.83203 C 287.83789 275.98258 295.04976 282.61133 303.9043 282.61133 L 303.9043 294.1875 C 299.42434 294.1875 295.23324 293.05302 291.48242 291.23047 C 282.9932 305.48739 256.80793 317.72852 223.99609 317.72852 C 191.1963 317.72852 165.00045 305.48776 156.50977 291.23047 C 152.76041 293.05302 148.56638 294.1875 144.08789 294.1875 L 144.08789 282.61133 C 152.94244 282.61133 160.15625 275.98258 160.15625 267.83203 z"/></svg>

<svg xmlns="http://www.w3.org/2000/svg" width="100%" height="100%" viewBox="-75.52 -43.52 599.04 599.04"><path d="M48 32C21.5 32 0 53.5 0 80v352c0 26.5 21.5 48 48 48h352c26.5 0 48-21.5 48-48V80c0-26.5-21.5-48-48-48H48zm59.127 64.004c.773.008 1.544.03 2.312.058 8.451.274 17.163 4.44 19.311 9.479 2.527 5.938-.326 9.766-2.656 13.998-2.995 5.443-1.536 10.886 2.357 15.418 4.206 4.935 14.542 15.546 20.428 21.824 20.898-15.848 46.875-25.363 75.13-25.363 28.242 0 54.22 9.516 75.104 25.35 5.886-6.263 16.225-16.876 20.43-21.811 3.893-4.532 5.365-9.973 2.357-15.402-2.329-4.245-5.183-8.075-2.644-14.012 2.136-5.025 10.846-9.205 19.297-9.479 6.145-.22 12.5.053 18.047 3.49 7.33 4.586 10.416 11.341 10.572 19.934.117 5.73-2.513 6.77 3.88 7.89 7.97 1.38 14.31 4.935 15.86 10.47 1.55 5.56.77 9.935-1.353 14.896-3.465 6.432-6.472 7.72-12.084 9.451-4.831 1.472-13.335.796-20.64-2.056-1.666-.651-3.177-1.707-4.765-2.553-4.74-2.552-7.59-2.056-11.197 1.799-2.07 2.239-8.554 8.096-17.473 16.547 18.204 21.666 29.192 49.57 29.192 80.064 0 30.508-10.99 58.398-29.192 80.065 8.919 8.462 15.416 14.336 17.487 16.562 3.606 3.853 6.458 4.35 11.197 1.81 1.59-.858 3.1-1.914 4.766-2.566 7.317-2.85 15.806-3.527 20.636-2.068 5.626 1.744 8.62 3.033 12.084 9.465 2.122 4.961 2.917 9.334 1.36 14.894-1.55 5.533-7.891 9.09-15.846 10.47-6.407 1.12-3.776 2.162-3.893 7.892-.157 8.593-3.243 15.35-10.56 19.933-5.548 3.438-11.915 3.712-18.06 3.49-8.451-.26-17.16-4.452-19.311-9.478-2.525-5.925.312-9.78 2.656-14.012 2.995-5.417 1.538-10.86-2.355-15.404-4.206-4.921-14.558-15.547-20.444-21.822-20.885 15.846-46.849 25.365-75.103 25.365-28.256 0-54.233-9.519-75.131-25.365-5.886 6.275-16.222 16.9-20.428 21.822-3.893 4.544-5.352 9.987-2.357 15.404 2.33 4.232 5.182 8.087 2.656 14.012-2.148 5.025-10.86 9.219-19.31 9.478-6.146.222-12.513-.053-18.06-3.49-7.318-4.584-10.417-11.34-10.573-19.933-.104-5.73 2.527-6.773-3.88-7.891-7.969-1.381-14.298-4.938-15.86-10.47-1.55-5.56-.768-9.934 1.355-14.895 3.463-6.432 6.47-7.723 12.082-9.467 4.83-1.459 13.333-.78 20.65 2.07 1.667.65 3.178 1.705 4.766 2.565 4.739 2.538 7.577 2.044 11.197-1.809 2.083-2.226 8.568-8.1 17.475-16.549-18.19-21.654-29.194-49.57-29.194-80.078 0-30.494 10.989-58.398 29.19-80.064-8.905-8.45-15.39-14.31-17.473-16.563-3.619-3.853-6.457-4.337-11.197-1.785-1.588.833-3.1 1.889-4.766 2.553-7.317 2.838-15.82 3.528-20.65 2.056-5.612-1.73-8.62-3.033-12.082-9.464-2.123-4.949-2.905-9.335-1.356-14.895 1.563-5.521 7.892-9.09 15.86-10.457 6.406-1.12 3.775-2.162 3.879-7.904.157-8.58 3.257-15.35 10.574-19.92 4.853-3.02 10.334-3.607 15.746-3.55zm116.883 43.12c-64.453 0-116.887 52.433-116.887 116.872 0 64.453 52.434 116.889 116.887 116.889 64.426 0 116.873-52.436 116.873-116.889 0-64.44-52.447-116.873-116.873-116.873zm-34.61 54.022c6.033 0 10.924 10.508 10.924 23.47 0 12.96-4.89 23.468-10.924 23.468-6.033 0-10.923-10.507-10.923-23.469 0-12.961 4.89-23.469 10.923-23.469zm69.22 0c6.025 0 10.91 10.508 10.91 23.47 0 12.96-4.885 23.468-10.91 23.468-6.026 0-10.911-10.507-10.911-23.469 0-12.961 4.885-23.469 10.91-23.469zm-98.464 74.686h11.574c0 6.081-2.278 11.654-5.923 16.107 3.933 9.87 27.499 22.213 58.19 22.213 30.701 0 54.255-12.343 58.189-22.213-3.66-4.453-5.91-10.026-5.91-16.107h11.562c0 8.15 7.212 14.78 16.066 14.78v11.575c-4.48 0-8.67-1.134-12.422-2.957-8.489 14.257-34.674 26.499-67.486 26.499-32.8 0-58.996-12.241-67.486-26.499-3.75 1.823-7.944 2.957-12.422 2.957v-11.576c8.854 0 16.068-6.628 16.068-14.779z"/></svg>
